X: 31438
T: Paddy Sean Nancy's
R: reel
M: 4/4
K: Gmajor
D3 A B2 Ac|BG ~G2 AEGE|D3 A BABc|1 dBAG EGGE:|2 dBAG EGGA||
Bd ~d2 edgd|BddB AGEG|Bd ~d2 efge|1 dBAG EGGA:|2 dBAG EGGE||

